X:278
T:B278-  Let Caesar Live Long
Q:1/4=120
L:1/4
M:3/4
K:G
G|d3/2 e/d|GAB|B3/2 c/A|G2G|\
d3/2 e/d|G3/2 A/B|B3/2 c/A|G2||B|\
A(B/A/) (G/F/)|G(A/G/) (F/E/)|A3/4B/4 A3/4G/4F|B2(B/c/)|\
dde|cce|d3/2 c/ B/c/|B2A|\
B3/2 c/d|G3/2 A/ B/c/|c3/2 B/A|(B3/4c/4) (B3/4A/4)G|\
(A3/4B/4) (A3/4G/4)F|G3/2 A/B|B3/2 c/A|G2|]

